X:1
T:Funky Bag
T:Funky Bag
T:Sean Barrett Jr
C:Sean Barrett Jr
Z:All Rights Reserved
L:1/8
Q:1/4=110
M:4/4
K:F#
V:1 treble nm="Flute" snm="Fl"
%%MIDI program 73
V:1
 G z FF z2 FG | z2 z2 z z/ =d/ cB | G z FF z z FG | z z z z Bc/=d/ g/b/g/b/- | b2 z2 z4 | %5
 B,=D-DE =F_G z2 | B z GF/G/ z4 | E2 z2 BA/B/ z2 | B z BA/G/ z4 | B, z GF/G/ z z z ^D | %10
 E z z2 AG/F/ z2 | B,8 |] %12

